X: 5535
T: Burning Snowball, The
R: jig
M: 6/8
K: Edorian
|:A B/c/d e2g|ged B2A|~G3 D2e|edB edB|
ABd e2g|ged B2A|GAB g2e|dBG A3:|
|:g2e a2g|ged B2A|~G3 D2e|edB edB|
gee aee|ged B2A|GAB g2e|dBG A3:|

